X:1
T: A Jig for Liz
C:
R:Jig
Q:180
K:D
M:6/8
L:1/16
|:A2|D4E2 F4A2|B4d2 e4f2|e2d2B2 A4F2|F6 E4B2|
E4F2 G4B2|e4f2 g4f2|e2f2d2 c2d2B2|A2B2G2 F2G2E2|
D4E2 F2E2D2=|c4A2 F4D2|d4B2^ G4E2|e4c2 A6|
f2e2d2 c2B2A2|d4A2 B2A2F2|D2E2F2 A4^A2|B6d4:|
